X:113
T:Not For Joe
M:4/4
L:1/8
K:G
D2 G2 D2 G2 | F2 E2 F2 E2 | D2 G2 D2 G2 | F2 G2 A4 |
D2 G2 D2 G2 | F2 E2 F2 E2 | D4 B3 A | G2 F2 G4 :|
B3 A G2 B2 | c4 A4 | B3 A G2 B2 | A2 F2 D4 |
B3 A G2 B2 | c4 A4 | D4 B3 A | G2 F2 G4 :|
